X: 25742
T: Mary O' The Wisp
R: reel
M: 4/4
K: Cmajor
P:A
|:EF|Gccd ecBc|d2ec dcAc|G2cd ecfe|A2GA AGED|
Gccd ecBc|d2ec dcAg|fafd ecBA|G2GF GF:|
P:B
|:EF|Gccd e2ce|d2Bd c2cd|ecfd ecfe|1 A2GA AG:|2 G2GF G2||
P:C
ef|gbge fafd|egdB cBcd|egfd ecdc|AA2^G A2ef|
g2 f2 e4|dd2B cBcd|egfd ecdB|G2GF G2||
P:D
ef|gage fafd|egdB cBcd|egfd ecdc|AA2^G A2ef|
gage fafd|egdB cBcd|egfd ecdB|G2GF G2||
P:E
EF|Gccd e3c|d3B c3d|egfd ecdc|AA2A AGE^F|
Gccd e2ce|d2Bd c2cd|ecfd ecdB|GG2^F G4||

